fl/RS.svg

<svg viewBox="0 0 21 15" version="1.1" xmlns="http://www.w3.org/2000/svg" xmlns:xlink="http://www.w3.org/1999/xlink" height="1em" width="1em">
  <defs>
    <linearGradient x1="50%" y1="0%" x2="50%" y2="100%" id="a">
      <stop stop-color="#FFFFFF" offset="0%"/>
      <stop stop-color="#F0F0F0" offset="100%"/>
    </linearGradient>
    <linearGradient x1="50%" y1="0%" x2="50%" y2="100%" id="b">
      <stop stop-color="#17508F" offset="0%"/>
      <stop stop-color="#114175" offset="100%"/>
    </linearGradient>
    <linearGradient x1="50%" y1="0%" x2="50%" y2="100%" id="c">
      <stop stop-color="#E1444D" offset="0%"/>
      <stop stop-color="#C53840" offset="100%"/>
    </linearGradient>
    <path d="M0.5,2.5 C0.5,1.82617791 0.873828888,0.484626524 0.873828888,0.484626524 C0.943511269,0.216974685 1.2157526,0 1.49538898,0 L3.50461102,0 C3.7782068,0 4.05735636,0.214117162 4.12617111,0.481138541 C4.12617111,0.481138541 4.5,1.81010532 4.5,2.5 C4.5,3.1449728 4.12359554,4.51947242 4.12359554,4.51947242 C4.05533561,4.78486047 3.85530376,5.17418671 3.66748512,5.37236309 C3.66748512,5.37236309 3.25,6 2.5,6 C1.75,6 1.33251488,5.37236309 1.33251488,5.37236309 C1.14887198,5.16671263 0.942643642,4.78284423 0.873828888,4.51260075 C0.873828888,4.51260075 0.5,3.16104539 0.5,2.5 Z" id="d"/>
  </defs>
  <g stroke="none" stroke-width="1" fill="none" fill-rule="evenodd">
    <g>
      <rect fill="url(#a)" x="0" y="0" width="21" height="15"/>
      <rect fill="url(#b)" x="0" y="5" width="21" height="5"/>
      <rect fill="url(#c)" x="0" y="0" width="21" height="5"/>
      <rect fill="url(#a)" x="0" y="10" width="21" height="5"/>
      <g transform="translate(4.000000, 5.000000)">
        <mask id="e" fill="white">
          <use xlink:href="#d"/>
        </mask>
        <use fill="url(#a)" xlink:href="#d"/>
        <polygon fill="#C43840" fill-rule="nonzero" mask="url(#e)" points="4.42191312 -0.202781928 -0.202781928 5.57808688 0.578086881 6.20278193 5.20278193 0.421913119"/>
        <polygon fill="#C43840" fill-rule="nonzero" mask="url(#e)" points="-0.202781928 0.421913119 4.42191312 6.20278193 5.20278193 5.57808688 0.578086881 -0.202781928"/>
      </g>
      <ellipse fill="#FFFFFF" cx="6.5" cy="7.5" rx="1" ry="1.5"/>
      <path d="M5,4 L4.5,3 L5.5,3.5 L6.5,3 L7.5,3.5 L8.5,3 L8,4 L8,4.5 C8,4.77614237 7.7842474,5 7.50461102,5 L5.49538898,5 C5.2217932,5 5,4.76806641 5,4.5 L5,4 Z" fill="#D1A43A"/>
    </g>
  </g>
</svg>

<svg viewBox="0 0 21 15" xmlns="http://www.w3.org/2000/svg" xmlns:xlink="http://www.w3.org/1999/xlink" height="1em" width="1em">
  <defs>
    <linearGradient x1="50%" y1="0%" x2="50%" y2="100%" id="a">
      <stop stop-color="#FFF" offset="0%"/>
      <stop stop-color="#F0F0F0" offset="100%"/>
    </linearGradient>
    <linearGradient x1="50%" y1="0%" x2="50%" y2="100%" id="b">
      <stop stop-color="#17508F" offset="0%"/>
      <stop stop-color="#114175" offset="100%"/>
    </linearGradient>
    <linearGradient x1="50%" y1="0%" x2="50%" y2="100%" id="c">
      <stop stop-color="#E1444D" offset="0%"/>
      <stop stop-color="#C53840" offset="100%"/>
    </linearGradient>
    <path d="M.5 2.5C.5 1.826.874.485.874.485A.672.672 0 0 1 1.495 0h2.01c.273 0 .552.214.621.481 0 0 .374 1.33.374 2.019 0 .645-.376 2.02-.376 2.02-.069.265-.269.654-.457.852 0 0-.417.628-1.167.628s-1.167-.628-1.167-.628a2.428 2.428 0 0 1-.46-.86S.5 3.162.5 2.5Z" id="d"/>
  </defs>
  <g fill="none" fill-rule="evenodd">
    <path fill="url(#a)" d="M0 0h21v15H0z"/>
    <path fill="url(#b)" d="M0 5h21v5H0z"/>
    <path fill="url(#c)" d="M0 0h21v5H0z"/>
    <path fill="url(#a)" d="M0 10h21v5H0z"/>
    <g transform="translate(4 5)">
      <mask id="e" fill="#fff">
        <use xlink:href="#d"/>
      </mask>
      <use fill="url(#a)" xlink:href="#d"/>
      <path fill="#C43840" fill-rule="nonzero" mask="url(#e)" d="M4.422-.203-.203 5.578l.781.625L5.203.422z"/>
      <path fill="#C43840" fill-rule="nonzero" mask="url(#e)" d="m-.203.422 4.625 5.78.78-.624L.579-.202z"/>
    </g>
    <ellipse fill="#FFF" cx="6.5" cy="7.5" rx="1" ry="1.5"/>
    <path d="m5 4-.5-1 1 .5 1-.5 1 .5 1-.5L8 4v.5c0 .276-.216.5-.495.5h-2.01A.503.503 0 0 1 5 4.5V4Z" fill="#D1A43A"/>
  </g>
</svg>
